X: 924
T: The old story-teller
C: anon.
O: Ireland
B: Francis O'Neill: "The Dance Music of Ireland" (1907) no. 924
R: Hornpipe
Z: Transcribed by Frank Nordberg - http://www.musicaviva.com
F: http://www.musicaviva.com/abc/tunes/ireland/oneill-1001/oneill-1001-092
4.abc
M: 2/4
L: 1/16
K: G
(3DEF|G2GA BcdB|cBcd e2(3def|gfge dBGB|cBAG FADF|G2GA BcdB|{d}cBcd edeg|b
gdB {d}cAFD|G2G2G2:|
|:(3def|{a}gfga bgdB|{d}cBcd ecAf|{a}gfga bgdB|cdef g2ga|(3bag fa (3gfe d
f|(3edc ge dBGB|dgfg ecAF|G2G2G2:|
W:
W:
W: From Musica Viva - http://www.musicaviva.com
W: the Internet center for free sheet music downloads.


